assets/icons/vkontakte-active.svg

<svg width="24" height="24" viewBox="0 0 24 24" xmlns="http://www.w3.org/2000/svg">
  <g id="Styleguide" fill="none" fill-rule="evenodd">
    <g id="Base-Style---Icons" transform="translate(-1220 -1836)">
      <g id="Vkontakte-Active" transform="translate(1200 1836)">
        <g id="VKontakte-Icon-Copy" transform="translate(20)">
          <path id="Rectangle-115" d="M0 0H23.862V23.862H0z"/>
          <path d="M8.16896539,7.81558404 C8.33500806,7.46441461 8.61548555,7.25644048 8.96103382,7.16552282 C9.29872872,7.07574164 9.64988654,7.00868987 9.99767863,6.99050634 C10.6382892,6.95754869 11.2822655,6.95413928 11.9228761,6.96550399 C12.2515957,6.97232281 12.584803,7.01437222 12.9067912,7.08256046 C13.4980377,7.20870871 13.7874905,7.53373932 13.831245,8.14516053 C13.8615365,8.58383821 13.843586,9.02706177 13.8278792,9.46687591 C13.8099287,9.92941947 13.7639304,10.3908266 13.7392484,10.8533701 C13.7224197,11.1806737 13.7078349,11.5079772 13.7145663,11.8341443 C13.7224197,12.2182714 13.7594427,12.6046714 13.9995315,12.9240197 C14.2328887,13.2342762 14.278887,13.2638244 14.6210696,13.0558503 C14.8095505,12.9410667 14.9688617,12.7615044 15.1079785,12.5842149 C16.0716992,11.3545537 16.8065502,9.99306183 17.3686271,8.53156056 C17.4224788,8.39404761 17.4920372,8.26221701 17.5470108,8.12470406 C17.7287602,7.67920756 18.0754304,7.49396284 18.5298039,7.4916899 C18.9437887,7.49055343 19.3588954,7.51441932 19.774002,7.51555579 C20.3944183,7.51782873 21.0148345,7.50419108 21.6352507,7.51214637 C21.9022652,7.51669226 22.1726455,7.53601226 22.4318067,7.59397226 C22.7852084,7.67238874 22.9086185,7.8985464 22.8413039,8.25994407 C22.7481854,8.76794646 22.5271691,9.22480766 22.2747394,9.66689475 C21.8113905,10.4794713 21.232485,11.207949 20.6625547,11.942109 C20.2990559,12.4103349 19.9467762,12.8865161 19.5967403,13.3626973 C19.5193285,13.4672526 19.4609892,13.5877185 19.4060156,13.707048 C19.1771459,14.2105045 19.2478263,14.6116786 19.6584453,15.0264904 C20.0769177,15.4492575 20.5133407,15.8549775 20.9340569,16.2754716 C21.5533512,16.8948482 22.1232815,17.558547 22.5888741,18.3063447 C22.7055528,18.4927259 22.7941837,18.7075189 22.8480353,18.9211754 C22.9164719,19.1939283 22.7975494,19.420086 22.5698017,19.5791919 C22.3050309,19.7655731 21.9953838,19.8269425 21.6857366,19.8303519 C21.0406384,19.8383072 20.3944183,19.8167142 19.74932,19.8098954 C19.4228442,19.806486 19.0963684,19.7985307 18.7732584,19.8769472 C18.6823837,19.8996766 18.5735584,19.8667189 18.4770741,19.8439895 C17.8589017,19.6962483 17.3495546,19.3553071 16.8895715,18.9279942 C16.4363199,18.5063636 16.0571143,18.0188176 15.6689335,17.5380906 C15.5298167,17.365347 15.3682616,17.2039682 15.1909998,17.0721376 C15.0653459,16.976674 14.902669,16.9050764 14.7478454,16.8834835 C14.4269792,16.8368882 14.1711837,16.9903117 14.0702118,17.3062505 C13.9871905,17.5687753 13.9535332,17.8494835 13.9153882,18.1256459 C13.8794871,18.3983988 13.8783652,18.6768342 13.8379764,18.9495871 C13.7628085,19.4666813 13.6113506,19.6928389 12.9595209,19.8087589 C12.4243699,19.903086 11.8880969,19.8564907 11.3529459,19.8076225 C10.6124853,19.7394342 9.88548763,19.6007848 9.18653772,19.3359871 C8.12408899,18.934813 7.22656102,18.2870247 6.4479555,17.461947 C5.6255955,16.5891376 4.92664559,15.6174551 4.2624749,14.6207704 C3.26285312,13.1217656 2.4270302,11.5295702 1.65515614,9.90214418 C1.43750561,9.4441465 1.20302643,8.99183118 1.08971352,8.49178409 C1.04932476,8.31449466 1.03025229,8.13265936 0.998838814,7.95309699 C0.980888255,7.84626875 1.01454555,7.76330639 1.11439554,7.73034874 C1.3241927,7.66102403 1.53511178,7.55987814 1.74827467,7.54964991 C2.27557235,7.52351108 2.80511385,7.54396755 3.33353345,7.53942167 C3.77332215,7.53601226 4.21311086,7.52123814 4.65289956,7.51782873 C4.75274955,7.51669226 4.85372145,7.53714873 4.95244952,7.55192285 C5.21048882,7.59056285 5.40457924,7.72580286 5.52462361,7.96105229 C5.64915561,8.21107583 5.77929717,8.45882644 5.88812243,8.71566881 C6.41542012,9.9555583 7.0672498,11.1249866 7.82790476,12.2330455 C7.98833788,12.466022 8.1476491,12.7024079 8.33052042,12.9172008 C8.43037041,13.0353938 8.56836533,13.1342667 8.70748217,13.202455 C8.9363518,13.3149656 9.14166133,13.2501867 9.24712086,13.0183467 C9.34360512,12.8103726 9.42101691,12.581942 9.45130848,12.3557843 C9.58145003,11.3841019 9.59603486,10.4067372 9.50403824,9.43050885 C9.48272195,9.2077606 9.43223601,8.98728529 9.37838433,8.76908293 C9.30097254,8.45655349 9.10015066,8.24403348 8.80957598,8.11674877 C8.64465521,8.04401464 8.47973445,7.97014405 8.31593559,7.89513699 C8.26657155,7.87354405 8.22057325,7.84399581 8.16896539,7.81558404" id="VKontake-Icon" fill="#587CA3"/>
        </g>
      </g>
    </g>
  </g>
</svg>

<svg width="24" height="24" viewBox="0 0 24 24" xmlns="http://www.w3.org/2000/svg">
  <g fill="none" fill-rule="evenodd">
    <path d="M0 0h23.862v23.862H0z"/>
    <path d="M8.169 7.816a1.17 1.17 0 0 1 .792-.65 5.11 5.11 0 0 1 1.037-.175 27.89 27.89 0 0 1 1.925-.025c.329.006.662.048.984.117.591.126.88.45.924 1.062.03.439.013.882-.003 1.322-.018.462-.064.924-.089 1.386a13.41 13.41 0 0 0-.024.981c.007.384.044.77.285 1.09.233.31.279.34.621.132.189-.115.348-.294.487-.472.964-1.23 1.699-2.59 2.26-4.052.054-.138.124-.27.179-.407.182-.446.528-.631.983-.633.414-.001.829.022 1.244.024.62.002 1.24-.012 1.861-.004.267.005.538.024.797.082.353.078.477.305.41.666-.094.508-.315.965-.567 1.407-.464.812-1.043 1.54-1.612 2.275a68.25 68.25 0 0 0-1.066 1.42 1.933 1.933 0 0 0-.191.345c-.229.504-.158.905.252 1.32.419.422.855.828 1.276 1.248.62.62 1.19 1.284 1.655 2.031.117.187.205.402.259.615.068.273-.05.5-.278.658-.265.187-.575.248-.884.251-.645.008-1.292-.013-1.937-.02-.326-.004-.653-.011-.976.067-.09.023-.2-.01-.296-.033-.618-.148-1.127-.489-1.587-.916-.454-.422-.833-.91-1.221-1.39-.14-.173-.3-.334-.478-.466a.989.989 0 0 0-.443-.189c-.321-.046-.577.107-.678.423-.083.263-.116.543-.155.82-.036.272-.037.55-.077.824-.075.517-.227.743-.878.859-.536.094-1.072.047-1.607-.001-.74-.069-1.468-.207-2.166-.472-1.063-.401-1.96-1.049-2.739-1.874-.822-.873-1.521-1.845-2.186-2.841-1-1.5-1.835-3.091-2.607-4.719-.217-.458-.452-.91-.565-1.41-.04-.178-.06-.36-.091-.539-.018-.107.016-.19.115-.223.21-.069.421-.17.634-.18.528-.026 1.057-.006 1.586-.01.44-.004.88-.019 1.319-.022.1-.001.2.02.3.034a.732.732 0 0 1 .572.41c.124.25.254.497.363.754a20.133 20.133 0 0 0 1.94 3.517c.16.233.32.47.503.684.1.118.237.217.376.285.23.113.435.048.54-.184a2.32 2.32 0 0 0 .204-.662c.13-.972.145-1.95.053-2.925a4.61 4.61 0 0 0-.126-.662c-.077-.312-.278-.525-.568-.652a38.53 38.53 0 0 1-.494-.222c-.05-.021-.095-.051-.147-.08" fill="#587CA3"/>
  </g>
</svg>
